X:1
T:Ar Hyd Y Nos, 84.84.88.84
T:Welsh tune; harmony by Luther O. Emerson, 1906
T:Ar Hyd Y Nos, 84.84.88.84
T:Public Domain
C:Welsh tune; harmony by Luther O. Emerson, 1906
Z:Public Domain
%%score ( 1 2 ) ( 3 4 )
L:1/8
M:4/4
K:G
V:1 treble 
V:2 treble 
V:3 bass 
V:4 bass 
V:1
 x8 || [B,G]3 [DF] [CE]2 [CG]2 | [^CA]3 [EG] [DF]2 D2 | [CE]4 [CF]3 [CF] | [B,G]8 || %5
 [Gc]2 [GB]2 [Gc]2 [Gd]2 | [Ge]2 [Gd]2 [Fc]2 [GB]2 | [Fc]3 [GB] [FA]2 [EG]2 | %8
 [EB]2 [EA]2 [DG]2 [DF]2 | [DG]3 [DF] [CE]2 [CG]2 | [^CA]3 [EG] [DF]2 D2 | [CE]4 [CF]3 [CF] | %12
 [B,G]8 |] %13
V:2
 x8 || x8 | x6 D2 | x8 | x8 || x8 | x8 | x8 | x8 | x8 | x6 D2 | x8 | x8 |] %13
V:3
 x8 || [G,,G,]3 [B,,G,] [C,G,]2 [E,G,]2 | (E,2 A,)[^C,A,] [D,A,]2 [B,,G,]2 | %3
 [C,G,]2 [A,,A,]2 [D,A,]3 [D,A,] | [G,,G,]8 || [E,C]2 [D,D]2 [E,C]2 [G,B,]2 | %6
 C2 [B,D]2 [A,D]2 [G,D]2 | [A,D]3 [G,D] [D,C]2 [E,B,]2 | [C,C]2 [C,C]2 [D,B,]2 (D,C,) | %9
 [B,,G,]3 [B,,G,] [C,G,]2 [E,G,]2 | E,2 A,-[^C,A,] [D,A,]2 [B,,G,]2 | %11
 [C,G,]2 [A,,A,]2 [D,A,]3 [D,A,] | [G,,G,]8 |] %13
V:4
 x8 || x8 | A,,3 x5 | x8 | x8 || x8 | C2 x6 | x8 | x6 A,2 | x8 | A,,3 x5 | x8 | x8 |] %13

